svgs/vodafone.svg

<svg viewBox="0 0 192 192" xmlns="http://www.w3.org/2000/svg"><path d="M85.769 167.506c-28.997-4.498-52.172-25.312-59.875-53.774-2.525-9.33-2.525-25.994 0-35.324 10.89-40.243 52.055-63.27 91.513-51.195a71.691 71.691 0 0 1 43.477 37.23C166.418 75.852 168 82.882 168 96.07c0 13.188-1.582 20.218-7.116 31.627-11.544 23.796-35.1 39.099-61.928 40.228-4.533.192-10.467.002-13.187-.42zm24.142-3.732c27.057-5.543 48.672-27.283 54.198-54.513 1.685-8.3 1.26-23.1-.888-30.853-1.73-6.247-5.989-15.48-9.737-21.105-5.49-8.242-21.298-22.012-25.28-22.02-2.116-.004-10.04 5.764-15.24 11.093-5.617 5.757-10.256 13.346-8.5 13.902.598.189 2.45.76 4.118 1.272 4.632 1.418 12.397 6.764 15.753 10.846 18.278 22.233 5.697 55.275-22.842 59.989-14.58 2.407-30.713-5.63-37.81-18.837-6.58-12.243-5.662-31.005 2.323-47.462 9.264-19.094 26.6-30.726 50.269-33.73 4.915-.623 4.924-.63 2.433-1.656-4.76-1.961-15.181-3.635-22.637-3.635-43.56 0-76.676 40.366-67.926 82.8 5.447 26.417 27.113 48.222 53.503 53.846 7.686 1.638 20.434 1.666 28.263.063zm-7.08-34.934c17.44-3.637 29.472-21.113 26.31-38.216-2.418-13.082-10.992-22.648-23.837-26.595-3.49-1.073-4.765-1.876-4.954-3.118-.511-3.36 4.081-10.354 11.842-18.032 4.224-4.18 7.13-7.599 6.459-7.599-.671 0-4.08.588-7.573 1.305-28.64 5.882-45.911 25.23-48.334 54.145-1.553 18.546 8.208 33.174 25.172 37.72 5.484 1.471 9.26 1.57 14.914.39z"/></svg>

<svg
    xmlns="http://www.w3.org/2000/svg"
    viewBox="0 0 192 192"
    id="vector">
    <path
        id="path"
        d="M 85.769 167.506 C 56.772 163.008 33.597 142.194 25.894 113.732 C 23.369 104.402 23.369 87.738 25.894 78.408 C 36.784 38.165 77.949 15.138 117.407 27.213 C 126.822 30.1 135.542 34.895 143.022 41.301 C 150.502 47.706 156.583 55.584 160.884 64.443 C 166.418 75.852 168 82.882 168 96.07 C 168 109.258 166.418 116.288 160.884 127.697 C 149.34 151.493 125.784 166.796 98.956 167.925 C 94.423 168.117 88.489 167.927 85.769 167.505 Z M 109.911 163.774 C 136.968 158.231 158.583 136.491 164.109 109.261 C 165.794 100.961 165.369 86.161 163.221 78.408 C 161.491 72.161 157.232 62.928 153.484 57.303 C 147.994 49.061 132.186 35.291 128.204 35.283 C 126.088 35.279 118.164 41.047 112.964 46.376 C 107.347 52.133 102.708 59.722 104.464 60.278 C 105.062 60.467 106.914 61.038 108.582 61.55 C 113.214 62.968 120.979 68.314 124.335 72.396 C 142.613 94.629 130.032 127.671 101.493 132.385 C 86.913 134.792 70.78 126.755 63.683 113.548 C 57.103 101.305 58.021 82.543 66.006 66.086 C 75.27 46.992 92.606 35.36 116.275 32.356 C 121.19 31.733 121.199 31.726 118.708 30.7 C 113.948 28.739 103.527 27.065 96.071 27.065 C 52.511 27.065 19.395 67.431 28.145 109.865 C 33.592 136.282 55.258 158.087 81.648 163.711 C 89.334 165.349 102.082 165.377 109.911 163.774 Z M 102.831 128.84 C 120.271 125.203 132.303 107.727 129.141 90.624 C 126.723 77.542 118.149 67.976 105.304 64.029 C 101.814 62.956 100.539 62.153 100.35 60.911 C 99.839 57.551 104.431 50.557 112.192 42.879 C 116.416 38.699 119.322 35.28 118.651 35.28 C 117.98 35.28 114.571 35.868 111.078 36.585 C 82.438 42.467 65.167 61.815 62.744 90.73 C 61.191 109.276 70.952 123.904 87.916 128.45 C 93.4 129.921 97.176 130.02 102.83 128.84 Z"
        fill="#000000"
        stroke="#000000"
        stroke-width="12"
        stroke-linecap="round"
        stroke-linejoin="round"/>
</svg>
